Newaita-dark/actions/32/mail-send-receive.svg

<svg height="32" viewBox="0 0 32 32" width="32" xmlns="http://www.w3.org/2000/svg"><g fill="#e0e0e0"><path d="m24.476562 22.082031v2.644531h-5.339843c-.367188 0-.664063-.296874-.664063-.660156v-1.324218c0-.367188.296875-.660157.664063-.660157zm0 0"/><path d="m23.816406 26.710938v-6.617188l5.289063 3.308594zm0 0"/><path d="m7.277344 22.082031v2.644531h5.339844c.367187 0 .664062-.296874.664062-.660156v-1.324218c0-.367188-.296875-.660157-.664062-.660157zm0 0"/><path d="m7.9375 26.710938v-6.617188l-5.292969 3.308594zm0 0"/><path d="m5.292969 5.542969c-1.464844 0-2.648438 1.179687-2.648438 2.644531v9.261719h2.648438v-7.644531l9.707031 8.628906c.5.445312 1.253906.445312 1.75 0l9.710938-8.628906v7.644531h2.644531v-9.261719c0-1.464844-1.179688-2.644531-2.644531-2.644531zm2.148437 2.644531h16.871094l-8.4375 7.5zm0 0"/></g></svg>

<?xml version="1.0" encoding="UTF-8"?>
<svg xmlns="http://www.w3.org/2000/svg" xmlns:xlink="http://www.w3.org/1999/xlink" width="32px" height="32px" viewBox="0 0 32 32" version="1.1">
<g id="surface1">
<path style=" stroke:none;fill-rule:nonzero;fill:rgb(87.843138%,87.843138%,87.843138%);fill-opacity:1;" d="M 24.476562 22.082031 L 24.476562 24.726562 L 19.136719 24.726562 C 18.769531 24.726562 18.472656 24.429688 18.472656 24.066406 L 18.472656 22.742188 C 18.472656 22.375 18.769531 22.082031 19.136719 22.082031 Z M 24.476562 22.082031 "/>
<path style=" stroke:none;fill-rule:nonzero;fill:rgb(87.843138%,87.843138%,87.843138%);fill-opacity:1;" d="M 23.816406 26.710938 L 23.816406 20.09375 L 29.105469 23.402344 Z M 23.816406 26.710938 "/>
<path style=" stroke:none;fill-rule:nonzero;fill:rgb(87.843138%,87.843138%,87.843138%);fill-opacity:1;" d="M 7.277344 22.082031 L 7.277344 24.726562 L 12.617188 24.726562 C 12.984375 24.726562 13.28125 24.429688 13.28125 24.066406 L 13.28125 22.742188 C 13.28125 22.375 12.984375 22.082031 12.617188 22.082031 Z M 7.277344 22.082031 "/>
<path style=" stroke:none;fill-rule:nonzero;fill:rgb(87.843138%,87.843138%,87.843138%);fill-opacity:1;" d="M 7.9375 26.710938 L 7.9375 20.09375 L 2.644531 23.402344 Z M 7.9375 26.710938 "/>
<path style=" stroke:none;fill-rule:nonzero;fill:rgb(87.843138%,87.843138%,87.843138%);fill-opacity:1;" d="M 5.292969 5.542969 C 3.828125 5.542969 2.644531 6.722656 2.644531 8.1875 L 2.644531 17.449219 L 5.292969 17.449219 L 5.292969 9.804688 L 15 18.433594 C 15.5 18.878906 16.253906 18.878906 16.75 18.433594 L 26.460938 9.804688 L 26.460938 17.449219 L 29.105469 17.449219 L 29.105469 8.1875 C 29.105469 6.722656 27.925781 5.542969 26.460938 5.542969 Z M 7.441406 8.1875 L 24.3125 8.1875 L 15.875 15.6875 Z M 7.441406 8.1875 "/>
</g>
</svg>
